!!!COM:	Compere, Loyset
!!!CDT:	~1445///-1518/08/16
!!!OTL:	Se pis ne vient d'amours je me contente
!!!AGN:	Song; Chanson
!!!SCT:	Com3036
!!!SCA:	Com3036
!!!voices:	3
**kern	**kern	**kern
*staff3	*staff2	*staff1
*Ivox	*Ivox	*Ivox
*I"Bassus	*I"Tenor	*I"Superius
*I'B	*I'T	*I'S
*clefF4	*clefGv2	*clefG2
*k[]	*k[]	*k[]
*M2/1	*M2/1	*M2/1
*met(C|)	*met(C|)	*met(C|)
=1-	=1-	=1-
1D	1D	0r
1C	1G	.
=2	=2	=2
2BB	2G	0r
1C	1A	.
4BB	2A	.
4AA	.	.
=3	=3	=3
1GG	0B	1d
2r	.	1g
[2G	.	.
=4	=4	=4
2G]	1r	2g
2D	.	1a
1F	1A	.
.	.	2a
=5	=5	=5
1.G	0d	1b
.	.	2r
4F	.	2b
4E	.	.
=6	=6	=6
2D	1d	1b
2G	.	.
2C	1e	2cc
2G	.	[2b
=7	=7	=7
2A	2c	4b]
.	.	4a
2F	4B	1a
.	4A	.
1E	1B	.
.	.	2g#i
=8	=8	=8
2r	1A	0a
2F	.	.
1F	1c	.
=9	=9	=9
1F	1c	2r
.	.	2a
[1F	1c	1a
=10	=10	=10
1F]	1c	1a
1E	2r	1g
.	2c	.
=11	=11	=11
1C	2e	2r
.	2e	2cc
1G	1d	2cc
.	.	2b
=12	=12	=12
1A	1c	1cc
2G	2.d	2b
2D	.	[2a
.	4c	.
=13	=13	=13
1E	2B	4a]
.	.	4g
.	2G	1g
1D	1A	.
.	.	2f#i
=14	=14	=14
2r	2.G	1g
1E	.	.
.	4A	.
.	4B	2r
.	4c	.
2D	[2d	2f
=15	=15	=15
2G	2d]	1e
2C	2c	.
1G	2c	1d
.	2B	.
=16	=16	=16
[0C	0c	1c
.	.	2r
.	.	2e
=17	=17	=17
0C]	1r	1e
.	1c	1e
=18	=18	=18
1G	1.d	2.d
.	.	4e
2D	.	4f
.	.	4g
2F	2c	[2a
=19	=19	=19
2G	2B	4a]
.	.	4g
4F	4A	1g
4E	4G	.
1D	2A	.
.	2A	2f
=20	=20	=20
2E	2G	2g
2F	1c	1a
1D	.	.
.	4B	4g
.	4A	4f
=21	=21	=21
!LO:TX:Z=8:t=s.c.	!LO:TX:Z=8:t=s.c.	!LO:TX:Z=8:t=s.c.
00C	00c	00e
=22	=22	=22
1r	1r	1r
1C	1c	1e
=23	=23	=23
1C	1c	1e
2C	2c	2e
[2G	[2B	[2d
=24	=24	=24
4G]	2B]	2d]
4F	.	.
2E	4A	1g
.	4G	.
1D	1A	.
.	.	2f#i
=25	=25	=25
2r	1G	0g
1G	.	.
.	2r	.
4F	2G	.
4E	.	.
=26	=26	=26
2D	1A	0r
2C	.	.
1D	1B	.
=27	=27	=27
1C	1.c	1g
1F	.	1a
.	4B	.
.	4A	.
=28	=28	=28
2E	1G	1b
2G	.	.
2F	2A	1cc
2G	2B	.
=29	=29	=29
2A	2c	2b
2D	2d	1a
1E	1B	.
.	.	2g#i
=30	=30	=30
1AA	1A	0a
2r	1c	.
[2A	.	.
=31	=31	=31
2A]	2B	1r
1G	4A	.
.	4G	.
.	2A	1cc
2F	2A	.
=32	=32	=32
2G	1G	2b
2E	.	4a
.	.	4g
1F	2r	2a
.	2c	2a
=33	=33	=33
2E	2c	1g
2G	2B	.
2F	2c	2r
4E	2d	2d
4D	.	.
=34	=34	=34
1C	1e	2g
.	.	2g
2r	2.d	2a
2G	.	2b
.	8cL	.
.	8BJ	.
=35	=35	=35
2F	4A	2.cc
.	4B	.
2.A	4c	.
.	4d	4b
.	2e	2cc
4E	.	.
2G	[2d	[2b
=36	=36	=36
2D	4d]	4b]
.	4c	4a
2F	4B	1a
.	4A	.
1E	1B	.
.	.	2g#i
=37	=37	=37
0AAl	0Al	0al
==	==	==
*-	*-	*-
!!!RDF**kern: l=long note in original notation
!!!RDF**kern: i=editorial accidental
!!!ENC:	Megan K. Eagen 2013/12/01
!!!END:	2013/12/01/
!!!EED:	Jesse Rodin
!!!EEV:	2014/02/23/
!!!ONB:	Translated from MusicXML and edited on 2014/02/23/ by Craig Sapp
!!muse2ps: C^@{COM}^i2I150v95,95,150Q16
